exported-svg/navigation-2.svg

<svg height="24" viewBox="0 0 24 24" width="24" xmlns="http://www.w3.org/2000/svg"><path d="m11.5015478 18.0758756-6.75193055 3.858246c-.40518638.231535-.87857269-.1690741-.71724103-.6069743l6.99999998-18.99999998c.160704-.43619643.7776392-.43619643.9383431 0l7 18.99999998c.1613317.4379002-.3120546.8385093-.717241.6069743zm0-14.12955726-6.05630954 16.43855436 5.80824004-3.3189943c.1537163-.0878379.3424226-.0878379.4961389 0l5.8082401 3.3189943z"/></svg>

<?xml version="1.0" encoding="UTF-8"?>
<svg width="24px" height="24px" viewBox="0 0 24 24" version="1.1" xmlns="http://www.w3.org/2000/svg" xmlns:xlink="http://www.w3.org/1999/xlink">
    <!-- Generator: Sketch 55.2 (78181) - https://sketchapp.com -->
    <title>navigation-2</title>
    <desc>Created with Sketch.</desc>
    <g id="navigation-2" stroke="none" stroke-width="1" fill="none" fill-rule="evenodd">
        <path d="M11.5015478,18.0758756 L4.74961725,21.9341216 C4.34443087,22.1656566 3.87104456,21.7650475 4.03237622,21.3271473 L11.0323762,2.32714732 C11.1930802,1.89095089 11.8100154,1.89095089 11.9707193,2.32714732 L18.9707193,21.3271473 C19.132051,21.7650475 18.6586647,22.1656566 18.2534783,21.9341216 L11.5015478,18.0758756 Z M11.5015478,3.94631834 L5.44523826,20.3848727 L11.2534783,17.0658784 C11.4071946,16.9780405 11.5959009,16.9780405 11.7496172,17.0658784 L17.5578573,20.3848727 L11.5015478,3.94631834 Z" id="Shape" fill="#000000" fill-rule="nonzero"></path>
    </g>
</svg>
